Simply-Purple-Circles/scalable/apps/soundconverter.svg

<svg xmlns="http://www.w3.org/2000/svg" width="48" height="48" viewBox="0 0 12.7 12.7"><path fill="#963996" d="M6.344.073a6.29 6.29 0 0 0-6.29 6.29 6.29 6.29 0 0 0 6.29 6.288 6.29 6.29 0 0 0 6.29-6.289 6.29 6.29 0 0 0-6.29-6.29zm-.018.936a5.407 5.407 0 0 1 5.407 5.407 5.407 5.407 0 0 1-5.407 5.407A5.407 5.407 0 0 1 .92 6.416 5.407 5.407 0 0 1 6.326 1.01zM4.708 2.144c-.194-.019-.09.21-.116.33-.002 1.673.004 3.347-.003 5.02-.03.16-.217.13-.33.1-.708-.063-1.497.427-1.598 1.168-.105.558.462 1.038.99.984.726-.041 1.31-.777 1.212-1.499.002-1.353-.003-2.707.003-4.06.024-.148.217-.158.306-.062.668.384 1.268 1.023 1.321 1.83.03.16-.022.557-.01.562.234-.872-.008-1.874-.673-2.495-.478-.51-.9-1.175-.981-1.859a.266.266 0 0 0-.12-.02zM8.673 3.62L7.05 5.244h.928V7.56h-.927l1.623 1.623 1.623-1.623H9.37V6.17h-.001v-.926h.928L8.673 3.62z"/></svg>

<?xml version="1.0" encoding="UTF-8" standalone="no"?>
<svg
   xmlns:dc="http://purl.org/dc/elements/1.1/"
   xmlns:cc="http://creativecommons.org/ns#"
   xmlns:rdf="http://www.w3.org/1999/02/22-rdf-syntax-ns#"
   xmlns:svg="http://www.w3.org/2000/svg"
   xmlns="http://www.w3.org/2000/svg"
   xmlns:sodipodi="http://sodipodi.sourceforge.net/DTD/sodipodi-0.dtd"
   xmlns:inkscape="http://www.inkscape.org/namespaces/inkscape"
   width="48"
   height="48"
   viewBox="0 0 12.7 12.7"
   version="1.1"
   id="svg4"
   sodipodi:docname="soundconverter.svg"
   inkscape:version="0.92.4 (5da689c313, 2019-01-14)">
  <metadata
     id="metadata10">
    <rdf:RDF>
      <cc:Work
         rdf:about="">
        <dc:format>image/svg+xml</dc:format>
        <dc:type
           rdf:resource="http://purl.org/dc/dcmitype/StillImage" />
        <dc:title></dc:title>
      </cc:Work>
    </rdf:RDF>
  </metadata>
  <defs
     id="defs8" />
  <sodipodi:namedview
     pagecolor="#ffffff"
     bordercolor="#666666"
     borderopacity="1"
     objecttolerance="10"
     gridtolerance="10"
     guidetolerance="10"
     inkscape:pageopacity="0"
     inkscape:pageshadow="2"
     inkscape:window-width="1087"
     inkscape:window-height="480"
     id="namedview6"
     showgrid="false"
     inkscape:zoom="4.9166667"
     inkscape:cx="2.1355932"
     inkscape:cy="24"
     inkscape:window-x="0"
     inkscape:window-y="25"
     inkscape:window-maximized="0"
     inkscape:current-layer="svg4" />
  <path
     d="m 6.344,0.073 a 6.29,6.29 0 0 0 -6.29,6.29 6.29,6.29 0 0 0 6.29,6.288 6.29,6.29 0 0 0 6.29,-6.289 6.29,6.29 0 0 0 -6.29,-6.29 z M 6.326,1.009 A 5.407,5.407 0 0 1 11.733,6.416 5.407,5.407 0 0 1 6.326,11.823 5.407,5.407 0 0 1 0.92,6.416 5.407,5.407 0 0 1 6.326,1.01 Z M 4.708,2.144 C 4.514,2.125 4.618,2.354 4.592,2.474 4.59,4.147 4.596,5.821 4.589,7.494 4.559,7.654 4.372,7.624 4.259,7.594 3.551,7.531 2.762,8.021 2.661,8.762 2.556,9.32 3.123,9.8 3.651,9.746 4.377,9.705 4.961,8.969 4.863,8.247 4.865,6.894 4.86,5.54 4.866,4.187 4.89,4.039 5.083,4.029 5.172,4.125 5.84,4.509 6.44,5.148 6.493,5.955 6.523,6.115 6.471,6.512 6.483,6.517 6.717,5.645 6.475,4.643 5.81,4.022 5.332,3.512 4.91,2.847 4.829,2.163 A 0.266,0.266 0 0 0 4.709,2.143 Z M 8.673,3.62 7.05,5.244 H 7.978 V 7.56 H 7.051 L 8.674,9.183 10.297,7.56 H 9.37 V 6.17 H 9.369 V 5.244 h 0.928 z"
     id="path2"
     inkscape:connector-curvature="0"
     style="fill:#963996" />
</svg>
